X: 21683
T: Kilnamona
R: barndance
M: 4/4
K: Gmajor
|:dGBd GABd|d2 c2 A3 B|c2 A2 e3 e|e2 d2 B4|
dGBd GABd|d2 c2 A3 B|c2 A2 e2 d2|G4 G4:|
|:b4 bagb|a3 a agef|gage d2 Bd|e2 (3aaa a2 ga|
b3 b bagb|a3 a agef|gage d2 (3Bcd|1 e2 (3ggg g4:|2 e2 g2 [Bg]4||

